X:18030
T:Unter Freunden - Walzer/Waltz/Valse
C:Simon Wascher
Z:abc transcription Simon Wascher
N:please mail errors to simon.wascher@chello.at
M:3/4
L:1/8
K:G
|:DGB|d2d^cde|d3DGA|B2B^ABc|
B4G2|FAdFAc|FAdFAc|B3ABc|
dedcBc|d2d^cde|d3DGA|B2B^ABc|
B4G2|FAcFAd|FAcFAd|G2FGBA|1G3:|2G4D2||
|:c3Bc2|E3^D E2|B3^A B2|G3DGB|
A3^G A2|D2F2A2|B3^A B2|G^G-GA-AB|
c3Bc2|E3^D E2|B3^A B2|G3DGB|
A3^G A2|D2F2A2|1G2FGBA|GDFGAB:|2G2GFGA|G3||

